src/img/logo-2.svg

<svg width="292" height="70" viewBox="0 0 292 70" fill="none" xmlns="http://www.w3.org/2000/svg">
<path fill-rule="evenodd" clip-rule="evenodd" d="M15.4804 14.2038L12.8785 15.764C11.4471 16.6221 10.2765 18.915 10.2765 20.8597V24.1048V27.0411L12.8785 25.4809C14.3099 24.6227 15.4804 22.3298 15.4804 20.3852V14.2038ZM2.62931 27.551L5.23125 29.1112C6.66264 29.9694 7.83319 32.2623 7.83319 34.2069V40.3884L5.23125 38.8281C3.79986 37.97 2.62931 35.6771 2.62931 33.7324V27.551ZM15.4804 27.551L12.8785 29.1112C11.4471 29.9694 10.2765 32.2623 10.2765 34.2069V40.3884L12.8785 38.8281C14.3099 37.97 15.4804 35.6771 15.4804 33.7324V27.551ZM2.62931 14.2038L5.23125 15.764C6.66264 16.6221 7.83319 18.915 7.83319 20.8597V24.1048V27.0411L5.23125 25.4809C3.79986 24.6227 2.62931 22.3298 2.62931 20.3852V14.2038ZM37.3723 14.2038L34.7704 15.764C33.339 16.6221 32.1684 18.915 32.1684 20.8597V24.1048V27.0411L34.7704 25.4809C36.2017 24.6227 37.3723 22.3298 37.3723 20.3852V14.2038ZM24.5212 27.551L27.1239 29.1112C28.5553 29.9694 29.7259 32.2623 29.7259 34.2069V40.3884L27.1239 38.8281C25.6925 37.97 24.522 35.6771 24.522 33.7324L24.5212 27.551ZM37.3723 27.551L34.7704 29.1112C33.339 29.9694 32.1684 32.2623 32.1684 34.2069V40.3884L34.7704 38.8281C36.2017 37.97 37.3723 35.6771 37.3723 33.7324V27.551ZM24.5212 14.2038L27.1239 15.764C28.5553 16.6221 29.7259 18.915 29.7259 20.8597V24.1048V27.0411L27.1239 25.4809C25.6925 24.6227 24.522 22.3298 24.522 20.3852L24.5212 14.2038ZM29.7259 43.4517L21.8919 39.638V33.7332V21.6511V9.56488V5.0788C21.8919 4.40806 22.4409 3.85957 23.1123 3.85957C23.7838 3.85957 24.3336 4.40806 24.3336 5.0788V11.0286L28.4764 13.5121C28.9248 13.7807 29.3427 14.1153 29.7259 14.4997V1.21923C29.7259 0.548493 30.2749 0 30.9463 0C31.6178 0 32.1668 0.548493 32.1668 1.21923V14.4989C32.55 14.1153 32.9678 13.7807 33.4163 13.5113L37.5591 11.0278V5.078C37.5591 4.40726 38.1081 3.85876 38.7795 3.85876C39.4509 3.85876 40 4.40726 40 5.078V9.56407V21.15V25.2452V33.7324C40 36.4379 38.4784 39.6669 36.1212 41.08L32.3536 43.3383L32.166 43.4509V65.7808C32.166 66.4515 31.6169 67 30.9455 67C30.2741 67 29.7251 66.4515 29.7251 65.7808L29.7259 43.4517ZM24 48H21V51H24V48ZM19 53H16V56H19V53ZM24 53H21V56H24V53ZM19 48H16V51H19V48ZM10.2757 14.4989C10.6589 14.1153 11.0768 13.7807 11.5252 13.5113L15.668 11.0278V5.078C15.668 4.40726 16.217 3.85876 16.8885 3.85876C17.5599 3.85876 18.1089 4.40726 18.1089 5.078V9.56407V21.15V25.2452V33.7324V39.6372L10.2749 43.4509V65.7808C10.2749 66.4515 9.72588 67 9.05446 67C8.38305 67 7.834 66.4515 7.834 65.7808V43.4509L7.64642 43.3383L3.87876 41.08C1.52155 39.6669 0 36.4379 0 33.7324V21.6511V9.56488V5.0788C0 4.40806 0.549046 3.85957 1.22046 3.85957C1.89188 3.85957 2.44093 4.40806 2.44093 5.0788V11.0286L6.58374 13.5121C7.03216 13.7807 7.44998 14.1153 7.83319 14.4997V1.21923C7.83319 0.548493 8.38224 0 9.05366 0C9.72507 0 10.2741 0.548493 10.2741 1.21923V14.4989H10.2757Z" fill="#E67A00"/>
<path d="M16 58H19V61H16V58Z" fill="#E67A00"/>
<path d="M21 58H24V61H21V58Z" fill="#E67A00"/>
<path d="M55.36 27.152C56.928 25.552 58.896 24.752 61.264 24.752C63.632 24.752 65.592 25.552 67.144 27.152C68.712 28.752 69.496 30.712 69.496 33.032C69.496 35.352 68.712 37.312 67.144 38.912C65.592 40.512 63.632 41.312 61.264 41.312C58.896 41.312 56.928 40.512 55.36 38.912C53.808 37.312 53.032 35.352 53.032 33.032C53.032 30.712 53.808 28.752 55.36 27.152ZM57.256 37.208C58.328 38.328 59.664 38.888 61.264 38.888C62.864 38.888 64.192 38.328 65.248 37.208C66.32 36.088 66.856 34.696 66.856 33.032C66.856 31.368 66.32 29.976 65.248 28.856C64.192 27.736 62.864 27.176 61.264 27.176C59.664 27.176 58.328 27.736 57.256 28.856C56.2 29.976 55.672 31.368 55.672 33.032C55.672 34.696 56.2 36.088 57.256 37.208ZM72.3631 29.792H74.9071V34.4L79.8751 29.792H83.3551L77.2351 35.408L83.3551 41H79.8751L74.9071 36.656V41H72.3631V29.792ZM84.5185 32.024V29.792H95.5825V32.024H91.3105V41H88.7665V32.024H84.5185ZM104.799 37.544H102.687L99.7111 41H96.4951L99.6871 37.28C98.8391 37.008 98.1991 36.552 97.7671 35.912C97.3351 35.256 97.1191 34.504 97.1191 33.656C97.1191 32.536 97.4871 31.616 98.2231 30.896C98.9751 30.16 100.063 29.792 101.487 29.792H107.343V41H104.799V37.544ZM104.799 32.024H101.559C100.967 32.024 100.503 32.168 100.167 32.456C99.8311 32.728 99.6631 33.128 99.6631 33.656C99.6631 34.184 99.8311 34.592 100.167 34.88C100.519 35.168 100.983 35.312 101.559 35.312H104.799V32.024ZM116.676 29.96C118.276 29.96 119.62 30.512 120.708 31.616C121.796 32.704 122.34 34.048 122.34 35.648C122.34 37.248 121.772 38.592 120.636 39.68C119.5 40.768 118.1 41.312 116.436 41.312C114.58 41.312 113.132 40.712 112.092 39.512C111.052 38.312 110.532 36.632 110.532 34.472C110.532 31.848 110.924 29.888 111.708 28.592C112.492 27.28 113.756 26.536 115.5 26.36L117.564 26.144C118.172 26.08 118.628 25.968 118.932 25.808C119.236 25.632 119.436 25.344 119.532 24.944H122.076C121.98 25.968 121.644 26.752 121.068 27.296C120.492 27.84 119.652 28.176 118.548 28.304L115.788 28.592C114.892 28.688 114.204 29.008 113.724 29.552C113.244 30.096 112.972 30.76 112.908 31.544C113.724 30.488 114.98 29.96 116.676 29.96ZM114.036 38.024C114.676 38.648 115.476 38.96 116.436 38.96C117.396 38.96 118.196 38.648 118.836 38.024C119.476 37.4 119.796 36.608 119.796 35.648C119.796 34.688 119.476 33.896 118.836 33.272C118.196 32.632 117.396 32.312 116.436 32.312C115.476 32.312 114.676 32.632 114.036 33.272C113.396 33.896 113.076 34.688 113.076 35.648C113.076 36.608 113.396 37.4 114.036 38.024ZM127.829 45.896H125.285V29.792H127.829V30.824C128.677 29.928 129.853 29.48 131.357 29.48C133.101 29.48 134.485 30.064 135.509 31.232C136.549 32.384 137.069 33.768 137.069 35.384C137.069 37.016 136.549 38.416 135.509 39.584C134.485 40.736 133.101 41.312 131.357 41.312C129.853 41.312 128.677 40.864 127.829 39.968V45.896ZM128.741 32.768C128.069 33.376 127.733 34.248 127.733 35.384C127.733 36.52 128.069 37.4 128.741 38.024C129.429 38.648 130.245 38.96 131.189 38.96C132.165 38.96 132.965 38.616 133.589 37.928C134.213 37.224 134.525 36.376 134.525 35.384C134.525 34.408 134.213 33.576 133.589 32.888C132.965 32.184 132.165 31.832 131.189 31.832C130.245 31.832 129.429 32.144 128.741 32.768ZM142.571 33.248H146.123C147.531 33.248 148.611 33.624 149.363 34.376C150.115 35.112 150.491 36.032 150.491 37.136C150.491 38.256 150.115 39.184 149.363 39.92C148.627 40.64 147.547 41 146.123 41H140.027V29.792H142.571V33.248ZM142.571 38.768H146.051C146.643 38.768 147.107 38.632 147.443 38.36C147.779 38.072 147.947 37.664 147.947 37.136C147.947 36.608 147.771 36.2 147.419 35.912C147.083 35.624 146.627 35.48 146.051 35.48H142.571V38.768ZM163.62 33.272H160.956C160.364 32.312 159.452 31.832 158.22 31.832C157.228 31.832 156.412 32.168 155.772 32.84C155.148 33.512 154.836 34.36 154.836 35.384C154.836 36.408 155.148 37.264 155.772 37.952C156.412 38.624 157.228 38.96 158.22 38.96C159.452 38.96 160.364 38.48 160.956 37.52H163.62C163.204 38.688 162.508 39.616 161.532 40.304C160.572 40.976 159.468 41.312 158.22 41.312C156.54 41.312 155.132 40.752 153.996 39.632C152.86 38.496 152.292 37.08 152.292 35.384C152.292 33.704 152.86 32.304 153.996 31.184C155.132 30.048 156.54 29.48 158.22 29.48C159.468 29.48 160.572 29.824 161.532 30.512C162.508 31.184 163.204 32.104 163.62 33.272ZM166.465 29.792H169.009V34.4L173.977 29.792H177.457L171.337 35.408L177.457 41H173.977L169.009 36.656V41H166.465V29.792ZM182.063 41H179.519V29.792H182.063V37.4L188.039 29.792H190.583V41H188.039V33.392L182.063 41ZM196.782 41H194.238V29.792H196.782V37.4L202.758 29.792H205.302V41H202.758V33.392L196.782 41ZM195.174 23.816H197.31C197.358 24.488 197.606 25.04 198.054 25.472C198.518 25.904 199.086 26.12 199.758 26.12C200.43 26.12 200.99 25.904 201.438 25.472C201.902 25.04 202.158 24.488 202.206 23.816H204.342C204.278 25.096 203.814 26.152 202.95 26.984C202.086 27.816 201.022 28.232 199.758 28.232C198.494 28.232 197.43 27.816 196.566 26.984C195.702 26.152 195.238 25.096 195.174 23.816Z" fill="#2B1C14"/>
<path d="M54.576 51.312V50.248H57.768C57.6747 49.7253 57.4413 49.3053 57.068 48.988C56.6947 48.6613 56.242 48.498 55.71 48.498C54.9073 48.498 54.324 48.8107 53.96 49.436H52.63C52.8633 48.8107 53.2553 48.3113 53.806 47.938C54.3567 47.5647 54.9913 47.378 55.71 47.378C56.662 47.378 57.4507 47.7 58.076 48.344C58.7107 48.988 59.028 49.8 59.028 50.78C59.028 51.76 58.7107 52.572 58.076 53.216C57.4507 53.86 56.662 54.182 55.71 54.182C54.9913 54.182 54.3567 53.9953 53.806 53.622C53.2553 53.2487 52.8633 52.7493 52.63 52.124H53.96C54.324 52.7493 54.9073 53.062 55.71 53.062C56.242 53.062 56.6947 52.9033 57.068 52.586C57.4413 52.2593 57.6747 51.8347 57.768 51.312H54.576ZM61.4746 47.56H66.6266V54H65.4226V48.624H62.6786V50.29C62.6786 50.682 62.6693 51.0227 62.6506 51.312C62.6319 51.592 62.5759 51.9187 62.4826 52.292C62.3986 52.656 62.2773 52.95 62.1186 53.174C61.9693 53.398 61.7499 53.594 61.4606 53.762C61.1713 53.9207 60.8213 54 60.4106 54H60.0046V52.866H60.2566C60.5366 52.866 60.7653 52.7913 60.9426 52.642C61.1199 52.4927 61.2413 52.2687 61.3066 51.97C61.3813 51.6713 61.4279 51.41 61.4466 51.186C61.4653 50.962 61.4746 50.6633 61.4746 50.29V47.56ZM71.824 53.062C72.6267 53.062 73.196 52.7727 73.532 52.194H74.834C74.61 52.81 74.2273 53.2953 73.686 53.65C73.154 54.0047 72.5333 54.182 71.824 54.182C70.8533 54.182 70.046 53.86 69.402 53.216C68.7673 52.572 68.45 51.7553 68.45 50.766C68.45 49.7953 68.758 48.988 69.374 48.344C69.9993 47.7 70.7927 47.378 71.754 47.378C72.6593 47.378 73.4107 47.7 74.008 48.344C74.6147 48.9787 74.918 49.7627 74.918 50.696C74.918 50.9667 74.9087 51.144 74.89 51.228H69.696C69.7707 51.76 70.004 52.1987 70.396 52.544C70.7973 52.8893 71.2733 53.062 71.824 53.062ZM71.754 48.498C71.2033 48.498 70.7413 48.652 70.368 48.96C70.004 49.2587 69.7847 49.6647 69.71 50.178H73.658C73.5833 49.6647 73.378 49.2587 73.042 48.96C72.706 48.652 72.2767 48.498 71.754 48.498ZM81.7993 50.78C82.3967 51.088 82.6953 51.5827 82.6953 52.264C82.6953 52.768 82.518 53.1833 82.1633 53.51C81.818 53.8367 81.3093 54 80.6373 54H76.7313V47.56H80.5813C81.2533 47.56 81.762 47.7233 82.1073 48.05C82.462 48.3673 82.6393 48.7827 82.6393 49.296C82.6393 49.968 82.3593 50.4627 81.7993 50.78ZM77.9353 52.936H80.5113C81.1647 52.936 81.4913 52.6653 81.4913 52.124C81.4913 51.5827 81.1647 51.312 80.5113 51.312H77.9353V52.936ZM77.9353 50.248H80.4553C81.1087 50.248 81.4353 49.9773 81.4353 49.436C81.4353 48.8947 81.1087 48.624 80.4553 48.624H77.9353V50.248ZM87.0866 47.378C88.02 47.378 88.7666 47.602 89.3266 48.05C89.8866 48.4887 90.1666 49.1047 90.1666 49.898V54H88.9626V53.3C88.4213 53.888 87.6746 54.182 86.7226 54.182C85.9386 54.182 85.304 54 84.8186 53.636C84.3426 53.272 84.1046 52.74 84.1046 52.04C84.1046 51.312 84.366 50.7847 84.8886 50.458C85.4206 50.122 86.102 49.954 86.9326 49.954H88.9626C88.9626 48.9833 88.3373 48.498 87.0866 48.498C86.676 48.498 86.3026 48.582 85.9666 48.75C85.64 48.9087 85.4113 49.1373 85.2806 49.436H83.9506C84.128 48.792 84.506 48.288 85.0846 47.924C85.6633 47.56 86.3306 47.378 87.0866 47.378ZM88.9626 51.424V51.004H86.9186C85.8453 51.004 85.3086 51.3493 85.3086 52.04C85.3086 52.7213 85.822 53.062 86.8486 53.062C87.4926 53.062 88.006 52.9127 88.3886 52.614C88.7713 52.306 88.9626 51.9093 88.9626 51.424ZM91.3405 48.624V47.56H97.5285V48.624H95.0365V54H93.8325V48.624H91.3405ZM101.779 47.378C102.74 47.378 103.543 47.7047 104.187 48.358C104.831 49.002 105.153 49.8093 105.153 50.78C105.153 51.7507 104.831 52.5627 104.187 53.216C103.543 53.86 102.74 54.182 101.779 54.182C100.808 54.182 100.001 53.86 99.3571 53.216C98.7224 52.5627 98.4051 51.7507 98.4051 50.78C98.4051 49.8093 98.7224 49.002 99.3571 48.358C100.001 47.7047 100.808 47.378 101.779 47.378ZM100.225 52.404C100.636 52.8427 101.154 53.062 101.779 53.062C102.404 53.062 102.922 52.8427 103.333 52.404C103.744 51.9653 103.949 51.424 103.949 50.78C103.949 50.1267 103.744 49.5853 103.333 49.156C102.932 48.7173 102.414 48.498 101.779 48.498C101.144 48.498 100.622 48.7173 100.211 49.156C99.8097 49.5853 99.6091 50.1267 99.6091 50.78C99.6091 51.424 99.8144 51.9653 100.225 52.404ZM108.178 56.856H106.974V47.56H108.178V48.26C108.71 47.672 109.433 47.378 110.348 47.378C111.365 47.378 112.163 47.7093 112.742 48.372C113.32 49.0347 113.61 49.8373 113.61 50.78C113.61 51.7227 113.32 52.5253 112.742 53.188C112.163 53.8507 111.365 54.182 110.348 54.182C109.433 54.182 108.71 53.888 108.178 53.3V56.856ZM108.766 49.1C108.346 49.492 108.136 50.052 108.136 50.78C108.136 51.508 108.346 52.0727 108.766 52.474C109.195 52.866 109.708 53.062 110.306 53.062C110.912 53.062 111.412 52.8427 111.804 52.404C112.205 51.956 112.406 51.4147 112.406 50.78C112.406 50.1453 112.205 49.6087 111.804 49.17C111.412 48.722 110.912 48.498 110.306 48.498C109.708 48.498 109.195 48.6987 108.766 49.1Z" fill="black"/>
</svg>

<svg width="213" height="67" fill="none" xmlns="http://www.w3.org/2000/svg"><path fill-rule="evenodd" clip-rule="evenodd" d="m15.48 14.204-2.601 1.56c-1.432.858-2.602 3.151-2.602 5.096v6.181l2.602-1.56c1.43-.858 2.601-3.151 2.601-5.096v-6.181ZM2.63 27.55l2.601 1.56c1.432.858 2.602 3.151 2.602 5.096v6.181l-2.602-1.56C3.8 37.97 2.63 35.678 2.63 33.732v-6.181Zm12.85 0-2.601 1.56c-1.432.858-2.602 3.151-2.602 5.096v6.181l2.602-1.56c1.43-.858 2.601-3.15 2.601-5.096v-6.181ZM2.63 14.204l2.601 1.56c1.432.858 2.602 3.151 2.602 5.096v6.181l-2.602-1.56C3.8 24.623 2.63 22.33 2.63 20.385v-6.181Zm34.742 0-2.602 1.56c-1.431.858-2.602 3.151-2.602 5.096v6.181l2.602-1.56c1.432-.858 2.602-3.151 2.602-5.096v-6.181ZM24.522 27.55l2.602 1.56c1.431.858 2.602 3.151 2.602 5.096v6.181l-2.602-1.56c-1.431-.858-2.602-3.15-2.602-5.096v-6.181Zm12.85 0-2.602 1.56c-1.431.858-2.602 3.151-2.602 5.096v6.181l2.602-1.56c1.432-.858 2.602-3.15 2.602-5.096v-6.181Zm-12.85-13.347 2.602 1.56c1.431.858 2.602 3.151 2.602 5.096v6.181l-2.602-1.56c-1.431-.858-2.602-3.151-2.602-5.096v-6.181Zm5.204 29.248-7.834-3.814V5.079c0-.67.549-1.22 1.22-1.22.672 0 1.222.55 1.222 1.22v5.95l4.142 2.483c.449.269.867.603 1.25.988V1.22c0-.672.549-1.22 1.22-1.22.672 0 1.22.548 1.22 1.22v13.279a6.524 6.524 0 0 1 1.25-.988l4.143-2.483v-5.95c0-.67.55-1.22 1.22-1.22.672 0 1.221.55 1.221 1.22V33.732c0 2.706-1.522 5.935-3.879 7.348l-3.767 2.258-.188.113v22.33c0 .67-.55 1.219-1.22 1.219-.672 0-1.22-.549-1.22-1.22V43.453ZM24 48h-3v3h3v-3Zm-5 5h-3v3h3v-3Zm5 0h-3v3h3v-3Zm-5-5h-3v3h3v-3Zm-8.724-33.501a6.527 6.527 0 0 1 1.25-.988l4.142-2.483v-5.95c0-.67.549-1.22 1.22-1.22.672 0 1.22.55 1.22 1.22v34.559l-7.833 3.814v22.33c0 .67-.55 1.219-1.22 1.219-.672 0-1.221-.549-1.221-1.22V43.45l-.188-.112L3.88 41.08C1.522 39.667 0 36.438 0 33.732V5.08c0-.67.549-1.22 1.22-1.22.672 0 1.22.55 1.22 1.22v5.95l4.144 2.483c.448.269.866.603 1.25.988V1.22c0-.672.548-1.22 1.22-1.22.671 0 1.22.548 1.22 1.22v13.279h.002Z" fill="#E67A00"/><path d="M16 58h3v3h-3v-3ZM21 58h3v3h-3v-3Z" fill="#E67A00"/><path d="M55.36 27.152c1.568-1.6 3.536-2.4 5.904-2.4s4.328.8 5.88 2.4c1.568 1.6 2.352 3.56 2.352 5.88s-.784 4.28-2.352 5.88c-1.552 1.6-3.512 2.4-5.88 2.4s-4.336-.8-5.904-2.4c-1.552-1.6-2.328-3.56-2.328-5.88s.776-4.28 2.328-5.88Zm1.896 10.056c1.072 1.12 2.408 1.68 4.008 1.68s2.928-.56 3.984-1.68c1.072-1.12 1.608-2.512 1.608-4.176 0-1.664-.536-3.056-1.608-4.176-1.056-1.12-2.384-1.68-3.984-1.68s-2.936.56-4.008 1.68c-1.056 1.12-1.584 2.512-1.584 4.176 0 1.664.528 3.056 1.584 4.176Zm15.107-7.416h2.544V34.4l4.968-4.608h3.48l-6.12 5.616L83.355 41h-3.48l-4.968-4.344V41h-2.544V29.792Zm12.156 2.232v-2.232h11.063v2.232h-4.271V41h-2.545v-8.976h-4.248Zm20.28 5.52h-2.112L99.711 41h-3.216l3.192-3.72c-.848-.272-1.488-.728-1.92-1.368-.432-.656-.648-1.408-.648-2.256 0-1.12.368-2.04 1.104-2.76.752-.736 1.84-1.104 3.264-1.104h5.856V41h-2.544v-3.456Zm0-5.52h-3.24c-.592 0-1.056.144-1.392.432-.336.272-.504.672-.504 1.2 0 .528.168.936.504 1.224.352.288.816.432 1.392.432h3.24v-3.288Zm11.877-2.064c1.6 0 2.944.552 4.032 1.656 1.088 1.088 1.632 2.432 1.632 4.032s-.568 2.944-1.704 4.032c-1.136 1.088-2.536 1.632-4.2 1.632-1.856 0-3.304-.6-4.344-1.8-1.04-1.2-1.56-2.88-1.56-5.04 0-2.624.392-4.584 1.176-5.88.784-1.312 2.048-2.056 3.792-2.232l2.064-.216c.608-.064 1.064-.176 1.368-.336.304-.176.504-.464.6-.864h2.544c-.096 1.024-.432 1.808-1.008 2.352-.576.544-1.416.88-2.52 1.008l-2.76.288c-.896.096-1.584.416-2.064.96s-.752 1.208-.816 1.992c.816-1.056 2.072-1.584 3.768-1.584Zm-2.64 8.064c.64.624 1.44.936 2.4.936s1.76-.312 2.4-.936c.64-.624.96-1.416.96-2.376s-.32-1.752-.96-2.376c-.64-.64-1.44-.96-2.4-.96s-1.76.32-2.4.96c-.64.624-.96 1.416-.96 2.376s.32 1.752.96 2.376Zm13.793 7.872h-2.544V29.792h2.544v1.032c.848-.896 2.024-1.344 3.528-1.344 1.744 0 3.128.584 4.152 1.752 1.04 1.152 1.56 2.536 1.56 4.152 0 1.632-.52 3.032-1.56 4.2-1.024 1.152-2.408 1.728-4.152 1.728-1.504 0-2.68-.448-3.528-1.344v5.928Zm.912-13.128c-.672.608-1.008 1.48-1.008 2.616 0 1.136.336 2.016 1.008 2.64.688.624 1.504.936 2.448.936.976 0 1.776-.344 2.4-1.032.624-.704.936-1.552.936-2.544 0-.976-.312-1.808-.936-2.496-.624-.704-1.424-1.056-2.4-1.056-.944 0-1.76.312-2.448.936Zm13.83.48h3.552c1.408 0 2.488.376 3.24 1.128.752.736 1.128 1.656 1.128 2.76 0 1.12-.376 2.048-1.128 2.784-.736.72-1.816 1.08-3.24 1.08h-6.096V29.792h2.544v3.456Zm0 5.52h3.48c.592 0 1.056-.136 1.392-.408.336-.288.504-.696.504-1.224s-.176-.936-.528-1.224c-.336-.288-.792-.432-1.368-.432h-3.48v3.288Zm21.049-5.496h-2.664c-.592-.96-1.504-1.44-2.736-1.44-.992 0-1.808.336-2.448 1.008-.624.672-.936 1.52-.936 2.544s.312 1.88.936 2.568c.64.672 1.456 1.008 2.448 1.008 1.232 0 2.144-.48 2.736-1.44h2.664c-.416 1.168-1.112 2.096-2.088 2.784-.96.672-2.064 1.008-3.312 1.008-1.68 0-3.088-.56-4.224-1.68-1.136-1.136-1.704-2.552-1.704-4.248 0-1.68.568-3.08 1.704-4.2 1.136-1.136 2.544-1.704 4.224-1.704 1.248 0 2.352.344 3.312 1.032.976.672 1.672 1.592 2.088 2.76Zm2.845-3.48h2.544V34.4l4.968-4.608h3.48l-6.12 5.616 6.12 5.592h-3.48l-4.968-4.344V41h-2.544V29.792ZM182.063 41h-2.544V29.792h2.544V37.4l5.976-7.608h2.544V41h-2.544v-7.608L182.063 41Zm14.719 0h-2.544V29.792h2.544V37.4l5.976-7.608h2.544V41h-2.544v-7.608L196.782 41Zm-1.608-17.184h2.136c.048.672.296 1.224.744 1.656.464.432 1.032.648 1.704.648.672 0 1.232-.216 1.68-.648.464-.432.72-.984.768-1.656h2.136c-.064 1.28-.528 2.336-1.392 3.168-.864.832-1.928 1.248-3.192 1.248-1.264 0-2.328-.416-3.192-1.248-.864-.832-1.328-1.888-1.392-3.168Z" fill="#2B1C14"/><path d="M54.576 51.312v-1.064h3.192c-.093-.523-.327-.943-.7-1.26-.373-.327-.826-.49-1.358-.49-.803 0-1.386.313-1.75.938h-1.33a3.06 3.06 0 0 1 1.176-1.498c.55-.373 1.185-.56 1.904-.56.952 0 1.74.322 2.366.966.635.644.952 1.456.952 2.436s-.317 1.792-.952 2.436c-.625.644-1.414.966-2.366.966-.719 0-1.353-.187-1.904-.56a3.06 3.06 0 0 1-1.176-1.498h1.33c.364.625.947.938 1.75.938.532 0 .985-.159 1.358-.476.373-.327.607-.751.7-1.274h-3.192Zm6.899-3.752h5.152V54h-1.204v-5.376h-2.744v1.666c0 .392-.01.733-.028 1.022a5.68 5.68 0 0 1-.168.98c-.084.364-.206.658-.364.882-.15.224-.37.42-.658.588-.29.159-.64.238-1.05.238h-.406v-1.134h.252c.28 0 .508-.075.686-.224.177-.15.298-.373.364-.672.074-.299.12-.56.14-.784.018-.224.028-.523.028-.896v-2.73Zm10.349 5.502c.803 0 1.372-.29 1.708-.868h1.302a2.866 2.866 0 0 1-1.148 1.456c-.532.355-1.153.532-1.862.532-.97 0-1.778-.322-2.422-.966-.635-.644-.952-1.46-.952-2.45 0-.97.308-1.778.924-2.422.625-.644 1.419-.966 2.38-.966.905 0 1.657.322 2.254.966.607.635.91 1.419.91 2.352 0 .27-.01.448-.028.532h-5.194c.075.532.308.97.7 1.316.401.345.877.518 1.428.518Zm-.07-4.564c-.55 0-1.013.154-1.386.462-.364.299-.583.705-.658 1.218h3.948c-.075-.513-.28-.92-.616-1.218-.336-.308-.765-.462-1.288-.462Zm10.045 2.282c.598.308.896.803.896 1.484 0 .504-.177.92-.532 1.246-.345.327-.854.49-1.526.49h-3.906v-6.44h3.85c.672 0 1.181.163 1.526.49.355.317.532.733.532 1.246 0 .672-.28 1.167-.84 1.484Zm-3.864 2.156h2.576c.654 0 .98-.27.98-.812 0-.541-.326-.812-.98-.812h-2.576v1.624Zm0-2.688h2.52c.654 0 .98-.27.98-.812 0-.541-.326-.812-.98-.812h-2.52v1.624Zm9.152-2.87c.933 0 1.68.224 2.24.672.56.439.84 1.055.84 1.848V54h-1.204v-.7c-.542.588-1.288.882-2.24.882-.784 0-1.419-.182-1.904-.546-.476-.364-.714-.896-.714-1.596 0-.728.261-1.255.784-1.582.532-.336 1.213-.504 2.044-.504h2.03c0-.97-.626-1.456-1.876-1.456-.411 0-.784.084-1.12.252-.327.159-.556.387-.686.686h-1.33a2.527 2.527 0 0 1 1.134-1.512c.578-.364 1.246-.546 2.002-.546Zm1.876 4.046v-.42h-2.044c-1.074 0-1.61.345-1.61 1.036 0 .681.513 1.022 1.54 1.022.644 0 1.157-.15 1.54-.448.382-.308.574-.705.574-1.19Zm2.378-2.8V47.56h6.188v1.064h-2.492V54h-1.205v-5.376h-2.491Zm10.438-1.246c.961 0 1.764.327 2.408.98.644.644.966 1.451.966 2.422 0 .97-.322 1.783-.966 2.436-.644.644-1.447.966-2.408.966-.971 0-1.778-.322-2.422-.966-.635-.653-.952-1.465-.952-2.436 0-.97.317-1.778.952-2.422.644-.653 1.451-.98 2.422-.98Zm-1.554 5.026c.411.439.929.658 1.554.658s1.143-.22 1.554-.658c.411-.439.616-.98.616-1.624 0-.653-.205-1.195-.616-1.624-.401-.439-.919-.658-1.554-.658s-1.157.22-1.568.658c-.401.43-.602.97-.602 1.624 0 .644.205 1.185.616 1.624Zm7.953 4.452h-1.204V47.56h1.204v.7c.532-.588 1.255-.882 2.17-.882 1.017 0 1.815.331 2.394.994.578.663.868 1.465.868 2.408 0 .943-.29 1.745-.868 2.408-.579.663-1.377.994-2.394.994-.915 0-1.638-.294-2.17-.882v3.556Zm.588-7.756c-.42.392-.63.952-.63 1.68s.21 1.293.63 1.694c.429.392.942.588 1.54.588.606 0 1.106-.22 1.498-.658.401-.448.602-.99.602-1.624 0-.635-.201-1.171-.602-1.61a1.903 1.903 0 0 0-1.498-.672c-.598 0-1.111.2-1.54.602Z" fill="#000"/></svg>
